X: 1
P: Miss Drummond of Perth
C: attrib. to Niel Gow
C: arr. T. Traub 6-26-03
R: Strathspey
M: 4/4
L: 1/8
K: Am
|:a|"Am"A<Ae>d B<d e2|"G"d<gB<g d<gB>G|"Am"A<Ae>d B<de>g|"Am"a>e"G"g>B "Am"A2 A :|
g|"Am"a<ae<a c<a e2|"G"g<gdg B<g d2|"Am"a<ae<a c<ae>g|"Am"a>eg>B A2 Ag|
"Am"a<ae<a c<ae>^f|"G"g<gd<g B<gd>g|"Am"a<ae<a "Em"gg|"Am"a>e"G"g>B "Am"A2 A |]
